X: 1
T: Dave Normaway MacDonald's Wedding
M: 4/4
L: 1/8
R: reel
K: Amix
eA~A2 eAce|dG~G2 dGBd|eA~A2 eAce|dgfa gedg|
eA~A2 eAce|dG~G2 dGBd|~e2dB AdBA|1GEDG EAAd:|2GEDG EAAg||
ae~e2 agba|gdde gabg|ae~e2 ageg|dega ba^gb|
ae~e2 gd~d2|eA~A2 dGBd|e2dB AdBA|1GEDG EAAg:|2GEDG EAAd||
